src/img/g77-logo.svg

<?xml version="1.0" encoding="UTF-8"?>
<svg width="248px" height="120px" viewBox="0 0 248 120" version="1.1" xmlns="http://www.w3.org/2000/svg" xmlns:xlink="http://www.w3.org/1999/xlink">
    <!-- Generator: sketchtool 49.3 (51167) - http://www.bohemiancoding.com/sketch -->
    <title>4F260B7A-6B9D-4AA4-97D5-A2868FB69602</title>
    <desc>Created with sketchtool.</desc>
    <defs>
        <polygon id="path-1" points="0 0.952233333 37.4713304 0.952233333 37.4713304 80.7590667 0 80.7590667"></polygon>
        <polygon id="path-3" points="1.67354074 0.9515 45.6558815 0.9515 45.6558815 80.7594333 1.67354074 80.7594333"></polygon>
        <polygon id="path-5" points="0.953973333 0.9515 35.2275733 0.9515 35.2275733 80.7598 0.953973333 80.7598"></polygon>
        <polygon id="path-7" points="0 120.048867 247.864059 120.048867 247.864059 1.8337 0 1.8337"></polygon>
    </defs>
    <g id="Gate-77-Homepage" stroke="none" stroke-width="1" fill="none" fill-rule="evenodd">
        <g id="Desktop-Landing" transform="translate(-835.000000, -116.000000)">
            <g id="Hero">
                <g id="brand/g77-logo" transform="translate(835.000000, 115.000000)">
                    <g id="Page-1">
                        <g id="Group-3" transform="translate(0.000000, 0.882200)">
                            <mask id="mask-2" fill="white">
                                <use xlink:href="#path-1"></use>
                            </mask>
                            <g id="Clip-2"></g>
                            <path d="M19.8780267,36.2952333 L37.4713304,36.2952333 L37.4713304,60.6932333 C37.4713304,73.4605667 31.0747674,80.7590667 18.7353896,80.7590667 C6.39784889,80.7590667 -0.000551111111,73.4605667 -0.000551111111,60.6932333 L-0.000551111111,21.0180667 C-0.000551111111,8.24706667 6.39784889,0.952233333 18.7353896,0.952233333 C31.0747674,0.952233333 37.4713304,8.24706667 37.4713304,21.0180667 L37.4713304,27.8564 L25.5893748,27.8564 L25.5893748,20.2187333 C25.5893748,14.5189 23.0763081,12.3519 19.0789156,12.3519 C15.0796859,12.3519 12.5666193,14.5189 12.5666193,20.2187333 L12.5666193,61.4907333 C12.5666193,67.1924 15.0796859,69.2439 19.0789156,69.2439 C23.0763081,69.2439 25.5893748,67.1924 25.5893748,61.4907333 L25.5893748,47.6967333 L19.8780267,47.6967333 L19.8780267,36.2952333 Z" id="Fill-1" fill="#FEFEFE" mask="url(#mask-2)"></path>
                        </g>
                        <g id="Group-6" transform="translate(38.577778, 0.882200)">
                            <mask id="mask-4" fill="white">
                                <use xlink:href="#path-3"></use>
                            </mask>
                            <g id="Clip-5"></g>
                            <path d="M16.9815704,55.4484333 L29.0913185,55.4484333 L23.1503407,15.0876 L22.9225481,15.0876 L16.9815704,55.4484333 Z M45.6558815,80.7594333 L32.9766519,80.7594333 L30.8052741,66.2797667 L15.3833481,66.2797667 L13.2119704,80.7594333 L1.67354074,80.7594333 L14.4685037,0.950766667 L32.8627556,0.950766667 L45.6558815,80.7594333 Z" id="Fill-4" fill="#FEFEFE" mask="url(#mask-4)"></path>
                        </g>
                        <polygon id="Fill-7" fill="#FEFEFE" points="78.2559407 1.8337 117.098252 1.8337 117.098252 13.2352 103.959763 13.2352 103.959763 81.6405333 91.3944296 81.6405333 91.3944296 13.2352 78.2559407 13.2352"></polygon>
                        <g id="Group-11" transform="translate(121.244444, 0.882200)">
                            <mask id="mask-6" fill="white">
                                <use xlink:href="#path-5"></use>
                            </mask>
                            <g id="Clip-10"></g>
                            <polygon id="Fill-9" fill="#FEFEFE" mask="url(#mask-6)" points="13.5211437 34.5836333 30.7727585 34.5836333 30.7727585 45.9869667 13.5211437 45.9869667 13.5211437 69.3583 35.2275733 69.3583 35.2275733 80.7598 0.953973333 80.7598 0.953973333 0.951133333 35.2275733 0.951133333 35.2275733 12.3526333 13.5211437 12.3526333"></polygon>
                        </g>
                        <path d="M236.440261,24.2168667 L224.216616,70.2775333 L211.649446,70.2775333 L223.759194,24.6733667 L210.503135,24.6733667 L210.503135,13.2718667 L236.440261,13.2718667 L236.440261,24.2168667 Z M205.256557,24.2168667 L193.032913,70.2775333 L180.465742,70.2775333 L192.57549,24.6733667 L179.319431,24.6733667 L179.319431,13.2718667 L205.256557,13.2718667 L205.256557,24.2168667 Z M167.894898,81.6405333 L247.862957,81.6405333 L247.862957,1.8337 L167.894898,1.8337 L167.894898,81.6405333 Z" id="Fill-12" fill="#FEFEFE"></path>
                        <path d="M43.60336,108.159883 C42.5507378,107.01955 40.62736,105.95255 37.8295526,104.95705 C36.16336,104.36305 34.9270341,103.81855 34.1169007,103.327217 C33.3086044,102.835883 32.7336119,102.296883 32.39376,101.70655 C32.0539081,101.11805 31.8830637,100.362717 31.8830637,99.44055 C31.8830637,98.19205 32.345997,97.21305 33.2700267,96.5108833 C34.1940563,95.8068833 35.4763081,95.45305 37.1186193,95.45305 C39.1981452,95.45305 41.3382933,95.91505 43.5390637,96.8372167 L44.5071822,94.1422167 C42.2806933,93.1723833 39.8429452,92.68655 37.1921007,92.68655 C34.6496415,92.68655 32.6068563,93.2933833 31.0619081,94.50705 C29.518797,95.7207167 28.7454044,97.3523833 28.7454044,99.4057167 C28.7454044,101.358217 29.2781452,102.942217 30.3417896,104.15405 C31.4054341,105.36955 33.1781748,106.42005 35.6600119,107.30555 C37.4345896,107.936217 38.7572563,108.500883 39.6261748,108.997717 C40.4969304,109.496383 41.1160119,110.03905 41.4870933,110.62755 C41.8581748,111.21605 42.0437156,111.971383 42.0437156,112.89355 C42.0437156,114.29055 41.52016,115.37955 40.4748859,116.162383 C39.4296119,116.945217 37.8718044,117.335717 35.8051378,117.335717 C34.5394193,117.335717 33.2626785,117.203717 31.9749156,116.93605 C30.6853156,116.670217 29.4930785,116.30355 28.4000415,115.843383 L28.4000415,118.82805 C30.1011378,119.64205 32.5333748,120.047217 35.6949156,120.047217 C38.6139674,120.047217 40.92496,119.392717 42.6278933,118.081883 C44.3308267,116.77105 45.1813748,114.94505 45.1813748,112.603883 C45.1813748,110.783383 44.6559822,109.30205 43.60336,108.159883" id="Fill-14" fill="#FEFEFE"></path>
                        <path d="M82.6179852,93.0689833 L82.6179852,110.399483 C82.6179852,112.634317 82.0099259,114.34665 80.7938074,115.543817 C79.5776889,116.73915 77.8435259,117.334983 75.5949926,117.334983 C73.236237,117.334983 71.446963,116.740983 70.2308444,115.552983 C69.0147259,114.36315 68.4066667,112.65815 68.4066667,110.437983 L68.4066667,93.0689833 L65.3057481,93.0689833 L65.3057481,110.217983 C65.3057481,113.275983 66.1838519,115.679483 67.9418963,117.42665 C69.6999407,119.173817 72.1836148,120.048317 75.3929185,120.048317 C78.6040593,120.048317 81.1281481,119.18115 82.9633481,117.444983 C84.8003852,115.71065 85.7189037,113.325483 85.7189037,110.291317 L85.7189037,93.0689833 L82.6179852,93.0689833 Z" id="Fill-16" fill="#FEFEFE"></path>
                        <mask id="mask-8" fill="white">
                            <use xlink:href="#path-7"></use>
                        </mask>
                        <g id="Clip-19"></g>
                        <polygon id="Fill-18" fill="#FEFEFE" mask="url(#mask-8)" points="107.723852 119.685867 110.82477 119.685867 110.82477 93.0695333 107.723852 93.0695333"></polygon>
                        <polygon id="Fill-20" fill="#FEFEFE" mask="url(#mask-8)" points="141.291111 95.81715 149.737807 95.81715 149.737807 93.0689833 129.743496 93.0689833 129.743496 95.81715 138.190193 95.81715 138.190193 119.685317 141.291111 119.685317"></polygon>
                        <polygon id="Fill-21" fill="#FEFEFE" mask="url(#mask-8)" points="183.561884 116.91845 171.795662 116.91845 171.795662 107.12295 182.850951 107.12295 182.850951 104.393117 171.795662 104.393117 171.795662 95.8167833 183.561884 95.8167833 183.561884 93.0686167 168.694744 93.0686167 168.694744 119.68495 183.561884 119.68495"></polygon>
                        <path d="M217.886921,108.159883 C216.836136,107.01955 214.910921,105.95255 212.113114,104.95705 C210.446921,104.36305 209.210596,103.81855 208.400462,103.327217 C207.592166,102.835883 207.017173,102.296883 206.677321,101.70655 C206.33747,101.11805 206.166625,100.362717 206.166625,99.44055 C206.166625,98.19205 206.629559,97.21305 207.553588,96.5108833 C208.477618,95.8068833 209.75987,95.45305 211.402181,95.45305 C213.481707,95.45305 215.621855,95.91505 217.822625,96.8372167 L218.790744,94.1422167 C216.564255,93.1723833 214.126507,92.68655 211.475662,92.68655 C208.933203,92.68655 206.890418,93.2933833 205.34547,94.50705 C203.802359,95.7207167 203.028966,97.3523833 203.028966,99.4057167 C203.028966,101.358217 203.561707,102.942217 204.625351,104.15405 C205.688996,105.36955 207.461736,106.42005 209.943573,107.30555 C211.718151,107.936217 213.040818,108.500883 213.909736,108.997717 C214.780492,109.496383 215.399573,110.03905 215.770655,110.62755 C216.141736,111.21605 216.327277,111.971383 216.327277,112.89355 C216.327277,114.29055 215.805559,115.37955 214.758447,116.162383 C213.713173,116.945217 212.155366,117.335717 210.088699,117.335717 C208.822981,117.335717 207.548077,117.203717 206.258477,116.93605 C204.968877,116.670217 203.77664,116.30355 202.683603,115.843383 L202.683603,118.82805 C204.384699,119.64205 206.816936,120.047217 209.980314,120.047217 C212.897529,120.047217 215.208521,119.392717 216.911455,118.081883 C218.614388,116.77105 219.464936,114.94505 219.464936,112.603883 C219.464936,110.783383 218.939544,109.30205 217.886921,108.159883" id="Fill-22" fill="#FEFEFE" mask="url(#mask-8)"></path>
                    </g>
                </g>
            </g>
        </g>
    </g>
</svg>

<svg width="248" height="120" xmlns="http://www.w3.org/2000/svg" xmlns:xlink="http://www.w3.org/1999/xlink"><defs><path id="a" d="M0 .952h37.471V80.76H0z"/><path id="c" d="M1.674.952h43.982v79.807H1.674z"/><path id="e" d="M.954.952h34.274V80.76H.954z"/><path id="g" d="M0 120.049h247.864V1.834H0z"/></defs><g transform="translate(0 -1)" fill="none" fill-rule="evenodd"><g transform="translate(0 .882)"><mask id="b" fill="#fff"><use xlink:href="#a"/></mask><path d="M19.878 36.295h17.593v24.398c0 12.768-6.396 20.066-18.736 20.066C6.398 80.76 0 73.461 0 60.693V21.018C0 8.248 6.398.952 18.735.952c12.34 0 18.736 7.295 18.736 20.066v6.838H25.59V20.22c0-5.7-2.513-7.867-6.51-7.867-4 0-6.512 2.167-6.512 7.867v41.27c0 5.701 2.513 7.753 6.512 7.753 3.997 0 6.51-2.052 6.51-7.753V47.697h-5.711V36.295z" fill="#FEFEFE" mask="url(#b)"/></g><g transform="translate(38.578 .882)"><mask id="d" fill="#fff"><use xlink:href="#c"/></mask><path d="M16.982 55.448h12.11l-5.942-40.36h-.227l-5.941 40.36zM45.656 80.76h-12.68l-2.17-14.48H15.382l-2.171 14.48H1.674L14.469.951h18.394l12.793 79.808z" fill="#FEFEFE" mask="url(#d)"/></g><path fill="#FEFEFE" d="M78.256 1.834h38.842v11.401H103.96v68.406H91.394V13.235H78.256z"/><g transform="translate(121.244 .882)"><mask id="f" fill="#fff"><use xlink:href="#e"/></mask><path fill="#FEFEFE" mask="url(#f)" d="M13.521 34.584h17.252v11.403H13.52v23.371h21.707V80.76H.954V.95h34.274v11.402H13.52z"/></g><path d="M236.44 24.217l-12.223 46.06h-12.568l12.11-45.604h-13.256V13.272h25.937v10.945zm-31.183 0l-12.224 46.06h-12.567l12.11-45.604h-13.257V13.272h25.938v10.945zM167.895 81.64h79.968V1.834h-79.968V81.64zM43.603 108.16c-1.052-1.14-2.976-2.207-5.773-3.203-1.667-.594-2.903-1.138-3.713-1.63-.808-.491-1.383-1.03-1.723-1.62-.34-.589-.51-1.344-.51-2.266 0-1.249.462-2.228 1.386-2.93.924-.704 2.206-1.058 3.849-1.058 2.08 0 4.22.462 6.42 1.384l.968-2.695c-2.226-.97-4.664-1.455-7.315-1.455-2.542 0-4.585.606-6.13 1.82-1.543 1.214-2.317 2.845-2.317 4.899 0 1.952.533 3.536 1.597 4.748 1.063 1.216 2.836 2.266 5.318 3.152 1.775.63 3.097 1.195 3.966 1.692.87.498 1.49 1.041 1.861 1.63.371.588.557 1.343.557 2.266 0 1.397-.524 2.486-1.57 3.268-1.044.783-2.602 1.174-4.669 1.174-1.266 0-2.542-.132-3.83-.4a19.177 19.177 0 0 1-3.575-1.093v2.985c1.701.814 4.133 1.22 7.295 1.22 2.919 0 5.23-.655 6.933-1.966 1.703-1.31 2.553-3.137 2.553-5.478 0-1.82-.525-3.302-1.578-4.444m39.015-15.091v17.33c0 2.235-.608 3.948-1.824 5.145-1.216 1.195-2.95 1.791-5.199 1.791-2.359 0-4.148-.594-5.364-1.782-1.216-1.19-1.824-2.895-1.824-5.115V93.069h-3.101v17.149c0 3.058.878 5.461 2.636 7.209 1.758 1.747 4.242 2.621 7.45 2.621 3.212 0 5.736-.867 7.571-2.603 1.837-1.734 2.756-4.12 2.756-7.154V93.07h-3.101z" fill="#FEFEFE"/><mask id="h" fill="#fff"><use xlink:href="#g"/></mask><path fill="#FEFEFE" mask="url(#h)" d="M107.724 119.686h3.1V93.07h-3.1zm33.567-23.869h8.447V93.07h-19.995v2.748h8.447v23.868h3.101zm42.271 21.101h-11.766v-9.795h11.055v-2.73h-11.055v-8.576h11.766v-2.748h-14.867v26.616h14.867zm34.325-8.758c-1.05-1.14-2.976-2.207-5.774-3.203-1.666-.594-2.902-1.138-3.713-1.63-.808-.491-1.383-1.03-1.723-1.62-.34-.589-.51-1.344-.51-2.266 0-1.249.463-2.228 1.387-2.93.924-.704 2.206-1.058 3.848-1.058 2.08 0 4.22.462 6.42 1.384l.969-2.695c-2.227-.97-4.664-1.455-7.315-1.455-2.543 0-4.586.606-6.13 1.82-1.544 1.214-2.317 2.845-2.317 4.899 0 1.952.533 3.536 1.596 4.748 1.064 1.216 2.837 2.266 5.319 3.152 1.774.63 3.097 1.195 3.966 1.692.87.498 1.49 1.041 1.86 1.63.372.588.557 1.343.557 2.266 0 1.397-.521 2.486-1.569 3.268-1.045.783-2.603 1.174-4.67 1.174-1.265 0-2.54-.132-3.83-.4a19.177 19.177 0 0 1-3.574-1.093v2.985c1.7.814 4.133 1.22 7.296 1.22 2.918 0 5.229-.655 6.931-1.966 1.703-1.31 2.554-3.137 2.554-5.478 0-1.82-.525-3.302-1.578-4.444"/></g></svg>
